X:1
T: Coutie's Wedding
C:
R:Strathspey
Q: 128
K:Am
M:4/4
L:1/16
|:AAA2 c4 edcB c4|AA3 c3d e3A ce3|AAA2 c4 edcB c4|GG3 B3G d3G Bd3|
AAA2 c4 edcB c4|AA3 c3d e3A ce3|AAA2 c4 edcB c4|GG3 B3G d3G Bd3|
c2g2 g3a g3c e4|c2g2 g3a g2c2 eg3|c2g2 g3a gc3 e4|GG3 B3G d3G Bd3|
c2g2 g3a g3c e4|c2g2 g3a g2c2 eg3|a3f g3e f3d e3c|d3B c3A d3G Bd3:|
